twotone/svg/hdr_strong.svg

<svg xmlns="http://www.w3.org/2000/svg" width="24" height="24"><path fill="none" d="M0 0h24v24H0V0z"/><g fill="currentColor"><path opacity=".3" d="M17 8c-2.21 0-4 1.79-4 4s1.79 4 4 4 4-1.79 4-4-1.79-4-4-4z"/><path d="M17 6c-3.31 0-6 2.69-6 6s2.69 6 6 6 6-2.69 6-6-2.69-6-6-6zm0 10c-2.21 0-4-1.79-4-4s1.79-4 4-4 4 1.79 4 4-1.79 4-4 4zM5 16c2.21 0 4-1.79 4-4S7.21 8 5 8s-4 1.79-4 4 1.79 4 4 4zm0-6c1.1 0 2 .9 2 2s-.9 2-2 2-2-.9-2-2 .9-2 2-2z"/></g></svg>

<?xml version="1.0" encoding="utf-8"?>
<!-- Generator: Adobe Illustrator 19.1.0, SVG Export Plug-In . SVG Version: 6.00 Build 0)  -->
<svg version="1.1" xmlns="http://www.w3.org/2000/svg" xmlns:xlink="http://www.w3.org/1999/xlink" x="0px" y="0px" width="24px"
	 height="24px" viewBox="0 0 24 24" enable-background="new 0 0 24 24" xml:space="preserve">
<g id="Bounding_Boxes">
	<g id="ui_x5F_spec_x5F_header_copy_3">
	</g>
	<path fill="none" d="M0,0h24v24H0V0z"/>
</g>
<g id="Duotone" fill="currentColor">
	<g id="ui_x5F_spec_x5F_header_copy_5">
	</g>
	<g>
		<g>
			<path opacity="0.3" d="M17,8c-2.21,0-4,1.79-4,4c0,2.21,1.79,4,4,4c2.21,0,4-1.79,4-4C21,9.79,19.21,8,17,8z"/>
			<path d="M17,6c-3.31,0-6,2.69-6,6s2.69,6,6,6s6-2.69,6-6S20.31,6,17,6z M17,16c-2.21,0-4-1.79-4-4c0-2.21,1.79-4,4-4
				c2.21,0,4,1.79,4,4C21,14.21,19.21,16,17,16z"/>
		</g>
		<path d="M5,16c2.21,0,4-1.79,4-4c0-2.21-1.79-4-4-4s-4,1.79-4,4C1,14.21,2.79,16,5,16z M5,10c1.1,0,2,0.9,2,2c0,1.1-0.9,2-2,2
			s-2-0.9-2-2C3,10.9,3.9,10,5,10z"/>
	</g>
</g>
</svg>
